svgs/thin/circle-parking.svg

<svg xmlns="http://www.w3.org/2000/svg" viewBox="0 0 512 512"><!--! Font Awesome Pro 6.5.1 by @fontawesome - https://fontawesome.com License - https://fontawesome.com/license (Commercial License) Copyright 2023 Fonticons, Inc. --><path d="M496 256A240 240 0 1 0 16 256a240 240 0 1 0 480 0zM0 256a256 256 0 1 1 512 0A256 256 0 1 1 0 256zM192 128h96c48.6 0 88 39.4 88 88s-39.4 88-88 88H192v72c0 4.4-3.6 8-8 8s-8-3.6-8-8V296 144c0-8.8 7.2-16 16-16zm96 160c39.8 0 72-32.2 72-72s-32.2-72-72-72H192V288h96z"/></svg>

<svg xmlns="http://www.w3.org/2000/svg" viewBox="0 0 512 512"><!--! Font Awesome Pro 6.1.1 by @fontawesome - https://fontawesome.com License - https://fontawesome.com/license (Commercial License) Copyright 2022 Fonticons, Inc. --><path d="M288 128C336.6 128 376 167.4 376 216C376 264.6 336.6 304 288 304H192V376C192 380.4 188.4 384 184 384C179.6 384 176 380.4 176 376V144C176 135.2 183.2 128 192 128H288zM360 216C360 176.2 327.8 144 288 144H192V288H288C327.8 288 360 255.8 360 216zM512 256C512 397.4 397.4 512 256 512C114.6 512 0 397.4 0 256C0 114.6 114.6 0 256 0C397.4 0 512 114.6 512 256zM256 16C123.5 16 16 123.5 16 256C16 388.5 123.5 496 256 496C388.5 496 496 388.5 496 256C496 123.5 388.5 16 256 16z"/></svg>
